!!!OTL: Lieben, das bringt Freud (88), S. 232
!!!id: T0246
**kern
*clefG2
*k[]
*G:
{4b
=1
4.g
8b
4a
8g
8a
=2
2b}
4r
=3
{8g
8a
=4
4b
4dd
4dd
8dd
8cc
=5
2b}
4r
=6
{8g
8b
=7
4dd
4dd
4dd
8ee
8dd
=8
4dd
4cc
4cc}
=9
{8dd
8cc
=10
4b
4b
4b
8b
8b
=11
4b
8b
8a
4a}
=12
{8g
8a
=13
2b
8r
8ee
8dd
8ee
=14
4dd
4dd
4dd
4cc
=15
2b}
4r
==
*-
!!!minrhy: 8
!!!meters: 4/4 ]  ZZ[5
!!!cut: Lieben, das bringt Freud (88), S. 232
!!!reg: Luxemburg
!!!trd: Singendes Volk, Esch-Alzette 1937 posth.
!!!rhy1: X_  X_.XX_XX  X__0_
!!!rhy2: XX  X_X_X_XX  X__0_
!!!key: T0246  08  G 4/4 ]  ZZ[5
!!!mod: SECHSTONSKALA DUR ?]  AMBITUS[6
!!!kad: 33423
!!!akz: 123_353_5554_3332_3553_
!!!fot: 'a__b__c__cs'bw_
!!!for: 'a__b__bw_bw_c__
!!!fok: 'V__^a_^a_\__^a_
!! PHRAS[AUFTAKTIG]
!!!fkt: Liebeslieder
!!!bem1: Triolen zu 3 Achteln
!!!bem2: ein Schlag zu anderthalb;
!!!bem3: Blascheid, fff Kaisen, 1901
!! THILL, Mathias:
!! PR[18] 2K[3] 2G[25] 3K[3] 3G[2] 4A[3] 4Ü[0] 5A[0] 6K[0] 6G[5]
!! 7K[0] 7G[0] 8A[0] MEHR[0] SI[40] ABS[65] SR[28] SP[12]
!! ST[16] 2k[5] 2g[20] 3k[6] 3g[11] 4d[0] 4ü[0] 5d[0] 6k[0] 6g[0]
!! 7k[0] 7g[0] 8d[0] mehr[0] si[42] dm[-2] sr[25] sp[17]
!! 1F[75] 2F[18] 3F[1] 4F[0] LF[0] 2P[6] 3P[0] 4P[0] TRI[0] DF[4] AB[72]
!! TF[0] U3K[0] U3[0] U4[0] U4Ü[0] U5[0] U6K[0] U6[0] U7K[0] U7[3]
!! N1[15] N2K[0] N2[23] N3K[0] N3[12] N4[6] N4Ü[0] N5[24] N6K[0] N6[11]
!!!n7k: 0] N7[5] O1[2] O2K[0] O2[0] O3K[0] O3[0] HÖ[0
